X: 160
T:J'ai vu le renard
M:2/4
L:1/8
Q:100
C:trad
R:Rondo
O:France
A:Aquitaine
N:Variation d'un air bien connu
K:D
d/2d/2c/2B/2|AG/2G/2 FF/2G/2|AB d/2d/2c/2B/2|AG/2G/2 FA|D2:|
|:D/2F/2F/2F/2|DF/2F/2 DF/2F/2|GE C/2E/2E/2E/2|CE/2E/2 CE|D2:||
W:
W: From "Falaleiro" http://home.t-online.de/home/pheld/homepage.htm

